www/assets/images/test_icons/flags/PH.svg

<svg fill="none" height="15" viewBox="0 0 21 15" width="21" xmlns="http://www.w3.org/2000/svg" xmlns:xlink="http://www.w3.org/1999/xlink"><mask id="a" height="15" maskUnits="userSpaceOnUse" width="21" x="0" y="0"><path d="m19 0h-17c-1.10457 0-2 .89543-2 2v11c0 1.1046.89543 2 2 2h17c1.1046 0 2-.8954 2-2v-11c0-1.10457-.8954-2-2-2z" fill="#fff"/></mask><g mask="url(#a)"><path d="m19 0h-17c-1.10457 0-2 .89543-2 2v11c0 1.1046.89543 2 2 2h17c1.1046 0 2-.8954 2-2v-11c0-1.10457-.8954-2-2-2z" fill="#d0091e"/><path clip-rule="evenodd" d="m0 0h21v8h-21z" fill="#0033ab" fill-rule="evenodd"/><path clip-rule="evenodd" d="m0 0v15.033l10-7.533z" fill="#fff" fill-rule="evenodd"/><g fill="#fdd200"><path clip-rule="evenodd" d="m4.485 7.985c.87-.055 1.515-.25 1.515-.485 0-.234-.645-.43-1.515-.485-.055-.87-.25-1.515-.485-1.515-.234 0-.43.645-.485 1.515-.87.055-1.515.25-1.515.485 0 .234.645.43 1.515.485.054.87.25 1.515.485 1.515.234 0 .43-.645.485-1.515z" fill-rule="evenodd"/><path d="m7.5 8c.27614 0 .5-.22386.5-.5s-.22386-.5-.5-.5-.5.22386-.5.5.22386.5.5.5z"/><path d="m2.5 5c.27614 0 .5-.22386.5-.5s-.22386-.5-.5-.5-.5.22386-.5.5.22386.5.5.5z"/><path d="m2.5 11c.27614 0 .5-.2239.5-.5s-.22386-.5-.5-.5-.5.2239-.5.5.22386.5.5.5z"/></g><path d="m19 .5h-17c-.82843 0-1.5.67157-1.5 1.5v11c0 .8284.67157 1.5 1.5 1.5h17c.8284 0 1.5-.6716 1.5-1.5v-11c0-.82843-.6716-1.5-1.5-1.5z" stroke="#000" stroke-opacity=".1"/></g></svg>

<svg width="21" height="15" viewBox="0 0 21 15" fill="none" xmlns="http://www.w3.org/2000/svg">
<mask id="mask0_3_71" style="mask-type:alpha" maskUnits="userSpaceOnUse" x="0" y="0" width="21" height="15">
<path d="M19 0H2C0.89543 0 0 0.89543 0 2V13C0 14.1046 0.89543 15 2 15H19C20.1046 15 21 14.1046 21 13V2C21 0.89543 20.1046 0 19 0Z" fill="white"/>
</mask>
<g mask="url(#mask0_3_71)">
<path d="M19 0H2C0.89543 0 0 0.89543 0 2V13C0 14.1046 0.89543 15 2 15H19C20.1046 15 21 14.1046 21 13V2C21 0.89543 20.1046 0 19 0Z" fill="#D0091E"/>
<path fill-rule="evenodd" clip-rule="evenodd" d="M0 0H21V8H0V0Z" fill="#0033AB"/>
<path fill-rule="evenodd" clip-rule="evenodd" d="M0 0V15.033L10 7.5L0 0Z" fill="white"/>
<path fill-rule="evenodd" clip-rule="evenodd" d="M4.485 7.985C5.355 7.93 6 7.735 6 7.5C6 7.266 5.355 7.07 4.485 7.015C4.43 6.145 4.235 5.5 4 5.5C3.766 5.5 3.57 6.145 3.515 7.015C2.645 7.07 2 7.265 2 7.5C2 7.734 2.645 7.93 3.515 7.985C3.569 8.855 3.765 9.5 4 9.5C4.234 9.5 4.43 8.855 4.485 7.985Z" fill="#FDD200"/>
<path d="M7.5 8C7.77614 8 8 7.77614 8 7.5C8 7.22386 7.77614 7 7.5 7C7.22386 7 7 7.22386 7 7.5C7 7.77614 7.22386 8 7.5 8Z" fill="#FDD200"/>
<path d="M2.5 5C2.77614 5 3 4.77614 3 4.5C3 4.22386 2.77614 4 2.5 4C2.22386 4 2 4.22386 2 4.5C2 4.77614 2.22386 5 2.5 5Z" fill="#FDD200"/>
<path d="M2.5 11C2.77614 11 3 10.7761 3 10.5C3 10.2239 2.77614 10 2.5 10C2.22386 10 2 10.2239 2 10.5C2 10.7761 2.22386 11 2.5 11Z" fill="#FDD200"/>
<path d="M19 0.5H2C1.17157 0.5 0.5 1.17157 0.5 2V13C0.5 13.8284 1.17157 14.5 2 14.5H19C19.8284 14.5 20.5 13.8284 20.5 13V2C20.5 1.17157 19.8284 0.5 19 0.5Z" stroke="black" stroke-opacity="0.1"/>
</g>
</svg>
